storage/app/icons/phosphoricons/fill/user-plus-fill.svg

<svg xmlns="http://www.w3.org/2000/svg" fill="currentColor" viewBox="0 0 256 256"><path d="M256 136a8 8 0 0 1-8 8h-16v16a8 8 0 0 1-16 0v-16h-16a8 8 0 0 1 0-16h16v-16a8 8 0 0 1 16 0v16h16a8 8 0 0 1 8 8m-112 21.68a68 68 0 1 0-71.9 0c-20.65 6.76-39.23 19.39-54.17 37.17A8 8 0 0 0 24 208h168a8 8 0 0 0 6.13-13.15c-14.95-17.78-33.53-30.41-54.13-37.17"/></svg>

<svg xmlns="http://www.w3.org/2000/svg" viewBox="0 0 256 256" fill="currentColor"><path d="M256,136a8,8,0,0,1-8,8H232v16a8,8,0,0,1-16,0V144H200a8,8,0,0,1,0-16h16V112a8,8,0,0,1,16,0v16h16A8,8,0,0,1,256,136ZM144,157.68a68,68,0,1,0-71.9,0c-20.65,6.76-39.23,19.39-54.17,37.17A8,8,0,0,0,24,208H192a8,8,0,0,0,6.13-13.15C183.18,177.07,164.6,164.44,144,157.68Z"/></svg>
